X:1
T:Cherubim, 78.78.77
T:Cherubim, 78.78.77
T:George Fitz-Curwood Le Jeune (1841-1904)
T:Public Domain Courtesy of the Cyber Hymnal™
C:George Fitz-Curwood Le Jeune (1841-1904)
Z:Public Domain
Z:Courtesy of the Cyber Hymnal™
%%score ( 1 2 ) ( 3 4 )
L:1/8
Q:1/4=110
M:4/4
K:Ab
V:1 treble 
V:2 treble 
V:3 bass 
V:4 bass 
V:1
 [Ac]3 [Ac] [Ac]2 [Ad]2 | [Ge]2 [EG]2 [EA]4 | [DF]3 [EG] [EA]2 (Bc) | [Dd]2 c2 [Ec]2 [EB]2 | %4
 [=DB]3 [Dc] [DB]2 [DB]2 | B3 z c (B2 A2) | [EG]2 E2 [CG]2 [CF]2 | [B,E]2 [B,=D]2 [DF]2 E2 | %8
 [Dd]3 [Dd] [Ed]2 [Ec]2 | [Ec]2 [EB]2 [EA]4 | [_CG]3 [CF] [=CE]2 [CA]2 | [Ec]2 [DB]2 [CA]4 |] %12
V:2
 x8 | x8 | x6 E2 | x2 (EF) x4 | x8 | E2 (D2 C4) x | x2 E2 x4 | x6 E2 | x8 | x8 | x8 | x8 |] %12
V:3
 [A,E]3 [A,E] [A,E]2 [F,D]2 | [E,B,]2 [D,B,]2 [C,A,]4 | [D,A,]3 [D,B,] [C,A,]2 [C,A,]2 | %3
 (F,G,) A,2 [E,A,]2 [E,G,]2 | [F,A,]3 [F,A,] [F,A,]2 [B,,A,]2 | [E,G,]2 [=E,G,]2 [F,A,]4 x | %6
 [G,B,]2 [G,B,]2 A,2 [A,,A,]2 | [B,,G,]2 [B,,F,]2 [B,,A,]2 [E,G,]2 | [F,A,]3 [F,A,] [G,B,]2 A,2 | %9
 [E,A,]2 [D,F,]2 [C,A,]4 | [=D,A,]3 [D,A,] [E,A,]2 [E,A,]2 | [E,G,]2 [E,G,]2 [A,,A,]4 |] %12
V:4
 x8 | x8 | x8 | B,,2 (C,D,) x4 | x8 | x9 | x4 A,2 x2 | x8 | x6 A,2 | x8 | x8 | x8 |] %12

